X: 45
T: 45. Kommt her zu mir, spricht
N: Derived from chor045.krn
C: Johann Sebastian Bach
%%abc-version 2.0
%%abcx-abcm2ps-target-version 5.9.1 (29 Sep 2008)
%%abc-creator hum2abc beta
%%abcx-conversion-date 2019/03/11 17:28:17
%%abc-edited-by Craig Stuart Sapp
%%humdrum-veritas 3873173285
%%humdrum-veritas-data 1829265346
%%
%%barnumbers 0
L: 1/8
M: C
%%staves [1 2 3 4]
V: 1 clef=treble
V: 2 clef=treble
V: 3 clef=treble-8
V: 4 clef=bass
K: D
[V:1] B2 [I:setbarnb 1]| 
[V:2] F2 | 
[V:3] d2 | 
[V:4] B,,2 | 
[V:1] B2B2f2e2 | 
[V:2] G2G2F^G ^AB | 
[V:3] e2e2d2=g2 | 
[V:4] E,F, G,A, B,D CB, | 
[V:1] fed2!fermata!c2Bc | 
[V:2] c2B2!fermata!^A2BA | 
[V:3] f2f2!fermata!f2fe | 
[V:4] ^A,F,B,2!fermata!F,2D,C, | 
[V:1] d2c2def2 | 
[V:2] B2F2F2F2 | 
[V:3] f2fe dc Bd | 
[V:4] B,,B, ^A,F, B,C DB, | 
[V:1] e2d2!fermata!c2dc | 
[V:2] Bc F^G!fermata!^A2B2 | 
[V:3] dc dB!fermata!c2fe | 
[V:4] ^G,^A, B,B,,!fermata!F,2B,,2 | 
[V:1] B2B2e3d | 
[V:2] F2EF^G4 | 
[V:3] dcB2B2cd | 
[V:4] B,=A,^G,F, E,D,C,B,, | 
[V:1] cd/e/ dcB4 | 
[V:2] A2A2A2^G2 | 
[V:3] e2A2f2ed | 
[V:4] A,,C, F,E, D,B,, E,E,, | 
[V:1] !fermata!A2A2d2c2 | 
[V:2] !fermata!E2F2B2c^A | 
[V:3] !fermata!c2def2f2 | 
[V:4] !fermata!A,,2D,C, B,,B,^A,F, | 
[V:1] def2e2d2 | 
[V:2] B2B2BcF2 | 
[V:3] fed2dc cB | 
[V:4] B,C DB, ^G,^A, B,B,, | 
[V:1] !fermata!c2Bcd2c2 | 
[V:2] !fermata!F2F2E2E2 | 
[V:3] !fermata!^A2dc B^GA2 | 
[V:4] !fermata!F,2B,A, ^G,E, A,=G, | 
[V:1] def2e2d2 | 
[V:2] FGA2G2F2 | 
[V:3] A2d2dc cB | 
[V:4] F,E, D,C, B,,^A,,B,,2 | 
[V:1] !fermata!c2f2f2f2 | 
[V:2] !fermata!F2FE DF BA | 
[V:3] !fermata!^A2c2c2B2 | 
[V:4] !fermata!F,2^A,,2B,,C, D,^D, | 
[V:1] e3dc2de | 
[V:2] GFE2-E2DG | 
[V:3] B4=Ag fB | 
[V:4] E,F, G,^G, =A,^A, B,=G, | 
[V:1] c4!fermata!B2 |]  
[V:2] G2FE!fermata!^D2 |]  
[V:3] B2^A2!fermata!F2 |]  
[V:4] E,C,F,2!fermata!B,,2 |]  



